!!!COM: Felix Mendelssohn
!!!CNT: Deutsch
!!!TXO: Deutsch
!!!OTL: Morgengruss
!!!LYR: Heine
!!!OPS: Op. 47
!!!ONM: No. 2
!!!ENC: Daniel Alt & Leigh VanHandel
!!!YOR: Sa2mmtliche Lieder fu2r eine Singstimme
!!!YOR: Neu revidirt von Dr. L. Benda, Ausgabe fu2r mittlere Stimme
!!!YOR: Braunschweig. Henry Litolff's Verlag. Boston and New York: Arthur P. Schmidt.
!!!ODT: 1839/
**kern	**silbe
*staff1	*
=1-	=1
*clefG2	*
*k[f#c#]	*
*M9/8	*
4.r	.
4.r	.
{8d	{Ue-
8f#	-ber
8a	die
=2	=2
4.b	Ber-
4.a	-ge
8dd	steigt
8a	schon
8f#	die
=3	=3
4.g	Son-
4f#}	-ne,}
{8f#	{die
8a	La2m-
8f#	|
8e	-mer-
=4	=4
4.d	-heer-
4.d	-de
8d	la2u-
8d	-tet
8e	von
=5	=5
4.f#}	ferm:}
4r	.
{8d	{Mein
8f#	Lieb-
8a	-chen,
8dd	mein
=6	=6
[4.dd	Lamm,
8dd]	|}
8cc#	{mei-
8b	-ne
8b	Son-
8a	-ne
8g#	und
=7	=7
[4.dd	Won-
8dd]	|
8cc#	-ne,
8b	noch
4ee	ein-
8cc#	-mal
=8	=8
[4.a	sa2h'
8a]	|
8g#	ich
8a	dich
4cc#	gar
8b	zu
=9	=9
4.a}	gern,}
4r	.
{8a	{noch
4ee	ein-
8cc#	-mal
=10	=10
[4.a	sa2h'
8a]	|
8g#	ich
8a	dich
4cc#	gar
8b	zu
=11	=11
2.a}	gern!}
4r	.
8r	.
=12	=12
4.r	.
4.r	.
4.r	.
=13	=13
4.r	.
4r	.
{8e	{Ich
8e	schau-
8a	-e
8cc#	hin-
=14	=14
[2.ee	-auf
4.ee]}	|}
=15	=15
4.r	.
4r	.
{8e	{mit
8e	spa2-
8a	-hen-
8ccn	-der
=16	=16
2.ee	Mie-
4.ccn}	-ne,}
=17	=17
4.r	.
4r	.
{8ccn	{"leb'
4b	wohl,
8a	mein
=18	=18
4.g}	Kind,}
4r	.
{8ccn	{ich
8b	wan-
8b	-dre
8a	von
=19	=19
4.g}	hier!}
4r	.
{8b	{leb'
4dd	wohl,
8ccn	mein
=20	=20
4.b}	Kind,}
4r	.
{8b	{leb'
4ee	wohl,
8dd	mein
=21	=21
4.cc#}	Kind,}
4r	.
{8cc#	{ich
8ee	wan-
8ee	-dre
8dd	von
=22	=22
4.cc#}	hier!}
4r	.
{8cc#	{leb'
4ee	wohl,
8cc#	mein
=23	=23
[4.a	Kind!"
4a]}	|}
{8a	{Ver-
8d	-ge-
8f#	-bens,
8a	es
=24	=24
4.b	regt
4.a	sich
8dd	kei-
8a	-ne
8f#	Gar-
=25	=25
4.g	-di-
4.f#}	-ne,}
4.r	.
=26	=26
4.r	.
4r	.
{8f#	{sie
8a	liegt
8f#	noch
8e	und
=27	=27
[4.d	schla2ft,
4d]	|}
8d	und
4d	tra2umt
8e	von
=28	=28
4.f#}	mir,}
4r	.
{8f#	{und
4g	tra2umt
8a	von
=29	=29
4.b}	mir,}
4r	.
{8dd	{sie
8dd	liegt
8cc#	noch
8b	und
=30	=30
4a	schla2ft,
8b	und
4a	tra2umt
8b	|
4a	von
8cc#	|
=31	=31
[4.ee	mir,
4ee]}	|}
{8dd	{sie
8dd	liegt
8cc#	noch
8b	und
=32	=32
4a	schla2ft,
8b	und
4a	tra2umt
8cc#	|
4ee	|
8dd	von
=33	=33
4.dd}	mir,}
4.r	.
4.r	.
=34	=34
4.r	.
4r	.
{8a	{sie
8dd	liegt
8a	noch
8f#	und
=35	=35
[4.a	schla2ft,
8a]	|
8r	.
8f#	und
8a	tra2umt
8f#	|
8e	von
=36	=36
2.d}	mir.}
4r	.
8r	.
==	==
*-	*-
